icons/outline/wall.svg

<!--
category: Buildings
tags: [brick, security, firewall, building, renovation, construction]
version: "1.45"
unicode: "ef7a"
-->
<svg
  xmlns="http://www.w3.org/2000/svg"
  width="24"
  height="24"
  viewBox="0 0 24 24"
  fill="none"
  stroke="currentColor"
  stroke-width="2"
  stroke-linecap="round"
  stroke-linejoin="round"
>
  <path d="M4 4m0 2a2 2 0 0 1 2 -2h12a2 2 0 0 1 2 2v12a2 2 0 0 1 -2 2h-12a2 2 0 0 1 -2 -2zm0 2h16m0 4h-16m0 4h16m-11 -12v4m5 0v4m-6 0v4m8 -4v4m-5 0v4" />
</svg>

<!--
category: Buildings
tags: [brick, security, firewall, building, renovation, construction]
version: "1.45"
unicode: "ef7a"
-->
<svg
  xmlns="http://www.w3.org/2000/svg"
  width="24"
  height="24"
  viewBox="0 0 24 24"
  fill="none"
  stroke="currentColor"
  stroke-width="2"
  stroke-linecap="round"
  stroke-linejoin="round"
>
    <path d="M4 4m0 2a2 2 0 0 1 2 -2h12a2 2 0 0 1 2 2v12a2 2 0 0 1 -2 2h-12a2 2 0 0 1 -2 -2zM4 8h16M20 12h-16M4 16h16M9 4v4M14 8v4M8 12v4M16 12v4M11 16v4" />
</svg>
